icons/code-circle.svg

<svg xmlns="http://www.w3.org/2000/svg" viewBox="0 0 24 24" fill="currentColor">
  <path d="M3.75 12.0075C3.75399 16.5898 7.41671 20.25 12 20.25c4.5858 0 8.25-3.6642 8.25-8.25 0-4.58579-3.6642-8.25-8.25-8.25-4.47527 0-8.15404 3.65524-8.25 8.2575Zm-1.49985-.0225C2.35803 6.59079 6.6777 2.25 12 2.25c5.4142 0 9.75 4.33579 9.75 9.75 0 5.4142-4.3358 9.75-9.75 9.75-5.41421 0-9.75-4.3358-9.75-9.75v-.0075l.00015-.0075ZM13.3698 9.46967c.2929-.29289.7678-.29289 1.0607 0l1.4 1.40003c.2705.2705.4446.6296.4446 1.0303 0 .4007-.1741.7598-.4446 1.0303l-1.4 1.4c-.2929.2929-.7678.2929-1.0607 0-.2929-.2929-.2929-.7677 0-1.0606L14.7395 11.9l-1.3697-1.3697c-.2929-.2929-.2929-.76774 0-1.06063Zm-2.6394 1.16063c.2929-.2929.2929-.76776 0-1.06066-.2929-.29289-.76777-.29289-1.06066.00001l-1.4 1.39995c-.27051.2706-.44467.6297-.44467 1.0304 0 .4007.17416.7598.44467 1.0303l1.4 1.4c.29289.2929.76776.2929 1.06066 0 .2929-.2929.2929-.7678 0-1.0607L9.36073 12l1.36967-1.3697Z"/>
</svg>

<svg width="24" height="24" viewBox="0 0 24 24" fill="none" xmlns="http://www.w3.org/2000/svg">
<path fill-rule="evenodd" clip-rule="evenodd" d="M3.75 12.0075C3.75399 16.5898 7.41671 20.25 12 20.25C16.5858 20.25 20.25 16.5858 20.25 12C20.25 7.41421 16.5858 3.75 12 3.75C7.52473 3.75 3.84596 7.40524 3.75 12.0075ZM2.25015 11.985C2.35803 6.59079 6.6777 2.25 12 2.25C17.4142 2.25 21.75 6.58579 21.75 12C21.75 17.4142 17.4142 21.75 12 21.75C6.58579 21.75 2.25 17.4142 2.25 12V11.9925L2.25015 11.985ZM13.3698 9.46967C13.6627 9.17678 14.1376 9.17678 14.4305 9.46967L15.8305 10.8697C16.101 11.1402 16.2751 11.4993 16.2751 11.9C16.2751 12.3007 16.101 12.6598 15.8305 12.9303L14.4305 14.3303C14.1376 14.6232 13.6627 14.6232 13.3698 14.3303C13.0769 14.0374 13.0769 13.5626 13.3698 13.2697L14.7395 11.9L13.3698 10.5303C13.0769 10.2374 13.0769 9.76256 13.3698 9.46967ZM10.7304 10.6303C11.0233 10.3374 11.0233 9.86254 10.7304 9.56964C10.4375 9.27675 9.96263 9.27675 9.66974 9.56965L8.26974 10.9696C7.99923 11.2402 7.82507 11.5993 7.82507 12C7.82507 12.4007 7.99923 12.7598 8.26974 13.0303L9.66974 14.4303C9.96263 14.7232 10.4375 14.7232 10.7304 14.4303C11.0233 14.1374 11.0233 13.6625 10.7304 13.3696L9.36073 12L10.7304 10.6303Z" fill="black"/>
</svg>
